src/assets/outline/Star.svg

<svg width="24" height="24" viewBox="0 0 24 24"  xmlns="http://www.w3.org/2000/svg">
<path d="M17.6601 22.6703C17.1301 22.6703 16.4501 22.5003 15.6001 22.0003L12.6101 20.2303C12.3001 20.0503 11.7001 20.0503 11.4001 20.2303L8.40012 22.0003C6.63012 23.0503 5.59012 22.6303 5.12012 22.2903C4.66012 21.9503 3.94012 21.0803 4.41012 19.0803L5.12012 16.0103C5.20012 15.6903 5.04012 15.1403 4.80012 14.9003L2.32012 12.4203C1.08012 11.1803 1.18012 10.1203 1.35012 9.60031C1.52012 9.08031 2.06012 8.16031 3.78012 7.87031L6.97012 7.34031C7.27012 7.29031 7.70012 6.97031 7.83012 6.70031L9.60012 3.17031C10.4001 1.56031 11.4501 1.32031 12.0001 1.32031C12.5501 1.32031 13.6001 1.56031 14.4001 3.17031L16.1601 6.69031C16.3001 6.96031 16.7301 7.28031 17.0301 7.33031L20.2201 7.86031C21.9501 8.15031 22.4901 9.07031 22.6501 9.59031C22.8101 10.1103 22.9101 11.1703 21.6801 12.4103L19.2001 14.9003C18.9601 15.1403 18.8101 15.6803 18.8801 16.0103L19.5901 19.0803C20.0501 21.0803 19.3401 21.9503 18.8801 22.2903C18.6301 22.4703 18.2301 22.6703 17.6601 22.6703ZM12.0001 18.5903C12.4901 18.5903 12.9801 18.7103 13.3701 18.9403L16.3601 20.7103C17.2301 21.2303 17.7801 21.2303 17.9901 21.0803C18.2001 20.9303 18.3501 20.4003 18.1301 19.4203L17.4201 16.3503C17.2301 15.5203 17.5401 14.4503 18.1401 13.8403L20.6201 11.3603C21.1101 10.8703 21.3301 10.3903 21.2301 10.0603C21.1201 9.73031 20.6601 9.46031 19.9801 9.35031L16.7901 8.82031C16.0201 8.69031 15.1801 8.07031 14.8301 7.37031L13.0701 3.85031C12.7501 3.21031 12.3501 2.83031 12.0001 2.83031C11.6501 2.83031 11.2501 3.21031 10.9401 3.85031L9.17012 7.37031C8.82012 8.07031 7.98012 8.69031 7.21012 8.82031L4.03012 9.35031C3.35012 9.46031 2.89012 9.73031 2.78012 10.0603C2.67012 10.3903 2.90012 10.8803 3.39012 11.3603L5.87012 13.8403C6.47012 14.4403 6.78012 15.5203 6.59012 16.3503L5.88012 19.4203C5.65012 20.4103 5.81012 20.9303 6.02012 21.0803C6.23012 21.2303 6.77012 21.2203 7.65012 20.7103L10.6401 18.9403C11.0201 18.7103 11.5101 18.5903 12.0001 18.5903Z" />
</svg>

<?xml version="1.0" encoding="UTF-8"?>
<svg width="24" height="24" viewBox="0 0 24 24" xmlns="http://www.w3.org/2000/svg">
 <path d="m17.66 22.67c-0.53 0-1.21-0.17-2.06-0.67l-2.99-1.77c-0.31-0.18-0.91-0.18-1.21 0l-3 1.77c-1.77 1.05-2.81 0.63-3.28 0.29-0.46-0.34-1.18-1.21-0.71-3.21l0.71-3.07c0.08-0.32-0.08-0.87-0.32-1.11l-2.48-2.48c-1.24-1.24-1.14-2.3-0.97-2.82 0.17-0.52 0.71-1.44 2.43-1.73l3.19-0.53c0.3-0.05 0.73-0.37 0.86-0.64l1.77-3.53c0.79998-1.61 1.85-1.85 2.4-1.85s1.6 0.24 2.4 1.85l1.76 3.52c0.14 0.27 0.57 0.59 0.87 0.64l3.19 0.53c1.73 0.29 2.27 1.21 2.43 1.73 0.16 0.51999 0.26 1.58-0.97 2.82l-2.48 2.49c-0.24 0.24-0.39 0.78-0.32 1.11l0.71 3.07c0.46 2-0.25 2.87-0.71 3.21-0.25 0.18-0.65 0.38-1.22 0.38zm-5.66-4.08c0.49 0 0.98 0.12 1.37 0.35l2.99 1.77c0.87 0.52 1.42 0.52 1.63 0.37s0.36-0.68 0.14-1.66l-0.71-3.07c-0.19-0.83 0.12-1.9 0.72-2.51l2.48-2.48c0.49-0.49 0.71-0.97 0.61-1.3-0.11-0.32999-0.57-0.59999-1.25-0.70999l-3.19-0.53c-0.77-0.13-1.61-0.75-1.96-1.45l-1.76-3.52c-0.32-0.64-0.72-1.02-1.07-1.02s-0.75 0.38-1.06 1.02l-1.77 3.52c-0.35 0.7-1.19 1.32-1.96 1.45l-3.18 0.53c-0.68 0.11-1.14 0.38-1.25 0.70999-0.11 0.33 0.12 0.82 0.61 1.3l2.48 2.48c0.6 0.6 0.91 1.68 0.72 2.51l-0.71 3.07c-0.23 0.99-0.07 1.51 0.14 1.66s0.75 0.14 1.63-0.37l2.99-1.77c0.38-0.23 0.87-0.35 1.36-0.35z"/>
</svg>
